X:1
T:Old Joe Clark
L:1/8
M:3/2
I:linebreak $
K:D
V:1 treble 
V:1
 d3 A F2 D2 A2 d2 | cd e2 Bc d2 c2 A2 | d2 f2 efge fg a2 |1 A2 d2 cdec d4 :|2 A2 d2 cdec d3 e ||$ %5
 f3 g fedc Bc d2 | cd e2 d2 B2 _B2 F2 | B2 d2 cdec de f2 | F2 B2 ^ABcA B2 AG |$ FEFD GFGE AGAF | %10
 BABG cBcA dcdB | efed c2 A2 dcde | fg a2 A2 c2 d4 || %13
